images/icon/billet.svg

<svg aria-hidden="true" focusable="false" data-prefix="fas" data-icon="money-bill-wave" class="svg-inline--fa fa-money-bill-wave fa-w-20" role="img" xmlns="http://www.w3.org/2000/svg" viewBox="0 0 640 512"><path fill="currentColor" d="M621.16 54.46C582.37 38.19 543.55 32 504.75 32c-123.17-.01-246.33 62.34-369.5 62.34-30.89 0-61.76-3.92-92.65-13.72-3.47-1.1-6.95-1.62-10.35-1.62C15.04 79 0 92.32 0 110.81v317.26c0 12.63 7.23 24.6 18.84 29.46C57.63 473.81 96.45 480 135.25 480c123.17 0 246.34-62.35 369.51-62.35 30.89 0 61.76 3.92 92.65 13.72 3.47 1.1 6.95 1.62 10.35 1.62 17.21 0 32.25-13.32 32.25-31.81V83.93c-.01-12.64-7.24-24.6-18.85-29.47zM48 132.22c20.12 5.04 41.12 7.57 62.72 8.93C104.84 170.54 79 192.69 48 192.69v-60.47zm0 285v-47.78c34.37 0 62.18 27.27 63.71 61.4-22.53-1.81-43.59-6.31-63.71-13.62zM320 352c-44.19 0-80-42.99-80-96 0-53.02 35.82-96 80-96s80 42.98 80 96c0 53.03-35.83 96-80 96zm272 27.78c-17.52-4.39-35.71-6.85-54.32-8.44 5.87-26.08 27.5-45.88 54.32-49.28v57.72zm0-236.11c-30.89-3.91-54.86-29.7-55.81-61.55 19.54 2.17 38.09 6.23 55.81 12.66v48.89z"></path></svg>

<svg id="Calque_1" data-name="Calque 1" xmlns="http://www.w3.org/2000/svg" viewBox="0 0 640.01 448"><defs><style>.cls-1{fill:#0065fc;}</style></defs><path class="cls-1" d="M621.16,54.46C582.37,38.19,543.55,32,504.75,32c-123.17,0-246.33,62.34-369.5,62.34-30.89,0-61.76-3.92-92.65-13.72A34.19,34.19,0,0,0,32.25,79C15,79,0,92.32,0,110.81V428.07c0,12.63,7.23,24.6,18.84,29.46C57.63,473.81,96.45,480,135.25,480c123.17,0,246.34-62.35,369.51-62.35,30.89,0,61.76,3.92,92.65,13.72A34.19,34.19,0,0,0,607.76,433C625,433,640,419.67,640,401.18V83.93c0-12.64-7.24-24.6-18.85-29.47ZM48,132.22c20.12,5,41.12,7.57,62.72,8.93A64.07,64.07,0,0,1,48,192.69Zm0,285V369.44c34.37,0,62.18,27.27,63.71,61.4A241.58,241.58,0,0,1,48,417.22ZM320,352c-44.19,0-80-43-80-96s35.82-96,80-96,80,43,80,96S364.17,352,320,352Zm272,27.78c-17.52-4.39-35.71-6.85-54.32-8.44A63.87,63.87,0,0,1,592,322.06Zm0-236.11a63.87,63.87,0,0,1-55.81-61.55A240.38,240.38,0,0,1,592,94.78Z" transform="translate(0 -32)"/></svg>
